src/next/cmd/lc_renamemasterpage.svg

<svg enable-background="new 0 0 128 128" height="24" viewBox="0 0 24 24" width="24" xmlns="http://www.w3.org/2000/svg" xmlns:xlink="http://www.w3.org/1999/xlink"><filter id="a"><feGaussianBlur stdDeviation="1.0394514"/></filter><filter id="b"><feGaussianBlur stdDeviation=".50063244"/></filter><g transform="matrix(.171875 0 0 .171875 1 2)"><path d="m17.231041 2.9481715.04228 120.0452085 91.230293.0764c.375-.375.586-.884.586-1.414l-.001-118.7075092z" filter="url(#a)" opacity=".306849" transform="matrix(0 1.0090419 -1.003276 0 127.07723 -1.871126)"/><path d="m17.231041 3.9136887.04228 119.0796913 91.230293.0764c.375-.375.586-.884.586-1.414l-.001-117.741972-91.857105-.0000893z" filter="url(#a)" opacity=".306849" transform="matrix(0 1.0090419 -1.003276 0 127.07723 -1.871126)"/><path d="m17.231041 2.916954.000004 120.076426h91.857105v-120.076406h-91.857105z" filter="url(#a)" opacity=".553425" transform="matrix(0 1.0090419 -1.003276 0 127.07723 -1.871126)"/><path d="m19.15104 4.8793075.0015 115.9837925 88.01611-.0577v-115.9259632l-88.017106-.0000893z" filter="url(#b)" opacity=".89589" transform="matrix(0 1.0090419 -1.003276 0 127.07723 -1.871126)"/><path d="m122.18193 17.453078-116.3637404.0015-.0000078 87.272722h116.3636382l.00013-87.273722z" fill="#80b3ff"/><g fill="#eee"><path d="m110.54545 23.272727h5.81819v75.561805h-5.67844z" stroke-width="1.040876"/><path d="m11.646499 23.272727h5.8181l-.01005 75.636364h-5.818181z" stroke-width="1.039331"/><g stroke-width="1.032804"><path d="m17.454545 93.090909h93.090905v5.818182h-93.090905z"/><path d="m17.454561 23.272727h93.091159v5.8181h-93.091159z"/><path d="m17.4543 46.5466h93.09115v5.8181h-93.09115z"/></g></g></g><g stroke-width=".999997" transform="matrix(.17187553 0 0 .17187553 -.000034 -.000344)"><rect fill="#747474" height="40.726574" ry="1.454523" width="93.08931" x=".000199" y="5.820081"/><rect fill="#fff" height="29.090408" ry="1.038945" width="81.453148" x="5.818281" y="11.638163"/><path d="m46.544854.00199937h29.09041v5.81808283h-29.09041z"/><path d="m46.544854 52.364736h29.090412v5.818084h-29.090412z"/><path d="m63.9991 4.3648718v47.9998652h-5.818081v-47.9998652z"/></g></svg>

<?xml version="1.0" encoding="UTF-8" standalone="no"?>
<svg
   xmlns:dc="http://purl.org/dc/elements/1.1/"
   xmlns:cc="http://creativecommons.org/ns#"
   xmlns:rdf="http://www.w3.org/1999/02/22-rdf-syntax-ns#"
   xmlns:svg="http://www.w3.org/2000/svg"
   xmlns="http://www.w3.org/2000/svg"
   xmlns:sodipodi="http://sodipodi.sourceforge.net/DTD/sodipodi-0.dtd"
   xmlns:inkscape="http://www.inkscape.org/namespaces/inkscape"
   enable-background="new 0 0 128 128"
   height="24"
   viewBox="0 0 24 24"
   width="24"
   version="1.1"
   id="svg32"
   sodipodi:docname="lc_renamemasterpage.svg"
   inkscape:version="0.92.4 (unknown)"
   inkscape:export-filename="/home/rizmut/Dokumen/Rizmut/Github/libreoffice-style-karasa-jaga/build/next/cmd/lc_renamemasterpage.png"
   inkscape:export-xdpi="96"
   inkscape:export-ydpi="96">
  <metadata
     id="metadata38">
    <rdf:RDF>
      <cc:Work
         rdf:about="">
        <dc:format>image/svg+xml</dc:format>
        <dc:type
           rdf:resource="http://purl.org/dc/dcmitype/StillImage" />
        <dc:title></dc:title>
      </cc:Work>
    </rdf:RDF>
  </metadata>
  <defs
     id="defs36" />
  <sodipodi:namedview
     pagecolor="#ffffff"
     bordercolor="#666666"
     borderopacity="1"
     objecttolerance="10"
     gridtolerance="10"
     guidetolerance="10"
     inkscape:pageopacity="0"
     inkscape:pageshadow="2"
     inkscape:window-width="1366"
     inkscape:window-height="714"
     id="namedview34"
     showgrid="true"
     inkscape:zoom="20.85965"
     inkscape:cx="10.48568"
     inkscape:cy="12.653653"
     inkscape:window-x="0"
     inkscape:window-y="28"
     inkscape:window-maximized="1"
     inkscape:current-layer="svg32">
    <inkscape:grid
       type="xygrid"
       id="grid845" />
  </sodipodi:namedview>
  <filter
     id="a">
    <feGaussianBlur
       stdDeviation="1.0394514"
       id="feGaussianBlur2" />
  </filter>
  <filter
     id="b">
    <feGaussianBlur
       stdDeviation=".50063244"
       id="feGaussianBlur5" />
  </filter>
  <g
     id="g861"
     transform="matrix(0.171875,0,0,0.171875,1,2)">
    <path
       id="path8"
       transform="matrix(0,1.0090419,-1.003276,0,127.07723,-1.871126)"
       d="m 17.231041,2.9481715 0.04228,120.0452085 91.230293,0.0764 c 0.375,-0.375 0.586,-0.884 0.586,-1.414 l -0.001,-118.7075092 z"
       inkscape:connector-curvature="0"
       style="opacity:0.30684904;filter:url(#a)"
       sodipodi:nodetypes="cccscc" />
    <path
       id="path10"
       transform="matrix(0,1.0090419,-1.003276,0,127.07723,-1.871126)"
       d="m 17.231041,3.9136887 0.04228,119.0796913 91.230293,0.0764 c 0.375,-0.375 0.586,-0.884 0.586,-1.414 l -0.001,-117.741972 -91.857105,-8.93e-5 z"
       inkscape:connector-curvature="0"
       style="opacity:0.30684904;filter:url(#a)"
       sodipodi:nodetypes="cccsccc" />
    <path
       id="path12"
       transform="matrix(0,1.0090419,-1.003276,0,127.07723,-1.871126)"
       d="m 17.231041,2.916954 4e-6,120.076426 H 109.08815 V 2.916974 H 17.231045 Z"
       inkscape:connector-curvature="0"
       style="opacity:0.55342503;filter:url(#a)"
       sodipodi:nodetypes="cccccc" />
    <path
       id="path14"
       transform="matrix(0,1.0090419,-1.003276,0,127.07723,-1.871126)"
       d="m 19.15104,4.8793075 0.0015,115.9837925 88.01611,-0.0577 V 4.8794368 l -88.017106,-8.93e-5 z"
       inkscape:connector-curvature="0"
       style="opacity:0.89589;filter:url(#b)"
       sodipodi:nodetypes="cccccc" />
    <path
       id="path16"
       d="m 122.18193,17.453078 -116.3637404,0.0015 -7.8e-6,87.272722 116.3636382,0 1.3e-4,-87.273722 z"
       inkscape:connector-curvature="0"
       style="fill:#80b3ff"
       sodipodi:nodetypes="cccccc" />
    <g
       id="g30"
       style="fill:#eeeeee">
      <path
         id="path20"
         d="m 110.54545,23.272727 5.81819,0 v 75.561805 h -5.67844 z"
         inkscape:connector-curvature="0"
         style="stroke-width:1.04087579"
         sodipodi:nodetypes="ccccc" />
      <path
         id="path22"
         d="m 11.646499,23.272727 h 5.8181 l -0.01005,75.636364 h -5.818181 z"
         inkscape:connector-curvature="0"
         style="stroke-width:1.03933132"
         sodipodi:nodetypes="ccccc" />
      <path
         id="path24"
         d="m 17.454545,93.090909 h 93.090905 v 5.818182 H 17.454545 Z"
         inkscape:connector-curvature="0"
         style="stroke-width:1.03280413"
         sodipodi:nodetypes="ccccc" />
      <path
         id="path26"
         d="m 17.454561,23.272727 h 93.091159 v 5.8181 H 17.454561 Z"
         inkscape:connector-curvature="0"
         style="stroke-width:1.03280413" />
      <path
         id="path28"
         d="m 17.4543,46.5466 h 93.09115 v 5.8181 H 17.4543 Z"
         inkscape:connector-curvature="0"
         style="stroke-width:1.03280413" />
    </g>
  </g>
  <g
     transform="matrix(0.17187553,0,0,0.17187553,-3.4267578e-5,-3.4364278e-4)"
     style="overflow:visible"
     id="g1370">
    <rect
       id="rect32"
       y="5.8200812"
       width="93.08931"
       ry="1.4545225"
       height="40.726574"
       style="fill:#747474;stroke-width:0.9999969"
       x="0.00019937438" />
    <rect
       id="rect34"
       y="11.638163"
       x="5.8182812"
       width="81.453148"
       ry="1.0389448"
       height="29.090408"
       style="fill:#ffffff;stroke-width:0.9999969" />
    <path
       style="stroke-width:0.9999969"
       id="path36"
       d="m 46.544854,0.00199937 h 29.09041 V 5.8200822 h -29.09041 z"
       inkscape:connector-curvature="0" />
    <path
       style="stroke-width:0.9999969"
       id="path38"
       d="M 46.544854,52.364736 H 75.635266 V 58.18282 H 46.544854 Z"
       inkscape:connector-curvature="0" />
    <path
       style="stroke-width:0.9999969"
       id="path40"
       d="M 63.9991,4.3648718 V 52.364737 H 58.181019 V 4.3648718 Z"
       inkscape:connector-curvature="0" />
  </g>
</svg>
